X: 1510
T: Niçin A Sevdiğim Niçin
C: Nikoğos Ağa
O: Turkey
F: http://compmusic.upf.edu/node/140
N: hicaz-humayun--sarki--evsat--nicin_a_sevdigim--nikogos_aga
N: makam= hicaz-humayun
N: form= sarki
N: usul= evsat = 26/8
M: 26/8
L: 1/16
K: C _7/8B ^c  
Q: 1/4=108
%%MIDI tuningsystem comma53
A8 G4 A8 a2g2 f2e2 d2f2 e2d2 c2B2 A2G2 A2B2 c2d2  | \
w:  ARANAĞME   | 
e8 G4 d6c2 B2A2 B2c2 B2d2 c2B2 B3A A8 B2c2  | 
w:   | 
A8 G4 A8 a2g2 f2e2 d2f2 e2d2 c2B2 A2G2 A2B2 c2d2  | \
w:  ARANAĞME   | 
e8 G4 d6c2 B2A2 B2c2 B2d2 c2B2 B3A A8 B2c2  | 
w:   | 
A8 G4 A8 e2d2 c2d2 c2d2 e2f2 e2d2 c2d2 c2d2 e2d2  | \
w:  (Ah)  Ni çin  a  *  *  *  *  *  *  *  sev  | 
d8 G4 d6c2 d6c2 d4 e2f2 e2d2 d2c2 B2A2 B2d2  | 
w:  *  di ğim  *  ni *  çin  a *  man    | 
c2B2 B2A2 c2d2 e6d2 e2d2 c2d2 c2d2 c2B2 (3c2B2A2 A8 B2d2  | 
w:  *  *  *  *  Se *  ni  *  sev *  *  *  *  *  *  *  dim   | 
c2B2 B2A2 e2d2 d2c4B2 B2A2 B2c2 B2d2 c2B2 (3c2B2A2 A8 B2c2  | 
w:  *  *  *  *  bu *  dur  *  *  su *  *  *  *  *  *  *  çum    | 
A8 G4 A8 e2d2 c2d2 c2d2 e2f2 e2d2 c2d2 c2d2 e2d2  | \
w:  *  Tur ra lan *  *  *  *  *  *  *  mış   | 
d8 G4 d6c2 d6c2 d4 e2f2 e2d2 d2c2 B2A2 B2d2  | 
w:  *  sır ma  *  sa *  çın  a *  man    | 
c2B2 B2A2 c2d2 e6d2 e2d2 c2d2 c2d2 c2B2 (3c2B2A2 A8 B2d2  | 
w:  *  *  *  *  Çö *  zen  *  ben *  *  *  *  *  *  *  den   | 
c2B2 {c}B2A2 e2d2 d2c4B2 B3A B2c2 B2d2 c2B2 (3c2B2A2 A8 B2c2  | 
w:  *  *  *  *  *  be *  ter  *  *  ol *  *  *  *  *  *  *  sun    | 
A8 G4 A8 e2d2 c2d2 c2d2 e2f2 e2d2 c2d2 c2d2 e2d2  | \
w:  *  Ye ter  ol *  *  *  *  *  *  *  sun   | 
d8 G4 d6c2 d6c2 d4 e2f2 e2d2 d2c2 B2A2 B2d2  | 
w:  *  ye ter  *  ol *  sun  a *  man    | 
c2B2 B2A2 c2d2 e6d2 e2d2 c2d2 c2d2 c2B2 (3c2B2A2 A8 B2d2  | 
w:  *  *  *  *  Çok  *  ağ *  lat *  *  *  *  *  *  *  tın   | 
c2B2 {c}B2A2 e2d2 d2c4B2 B3A B2c2 B2d2 c2B2 (3c2B2A2 A8 B2c2  | 
w:  *  *  *  *  *  ye *  ter  *  *  ol *  *  *  *  *  *  *  sun   *  *  *  SAZ  | 
A8 G4 A8 a2g2 f2e2 d2f2 e2d2 c2B2 A2G2 A2B2 c2d2  | \
w:  ARANAĞME   | 
e8 G4 d6c2 B2A2 B2c2 B2d2 c2B2 B3A A8 B2c2  | 
w:   | 
A8 G4 A8 a2g2 f2e2 d2f2 e2d2 c2B2 A2G2 A2B2 c2d2  | \
w:  ARANAĞME   | 
e8 G4 d6c2 B2A2 B2c2 B2d2 c2B2 B3A A8 B2c2  | 
w:   | 
A8 G4 A8 e2d2 c2d2 c2d2 e2f2 e2d2 c2d2 c2d2 e2d2  | \
w:  (Ah)  Ni çin  a  *  *  *  *  *  *  *  sev  | 
d8 G4 d6c2 d6c2 d4 e2f2 e2d2 d2c2 B2A2 B2d2  | 
w:  *  di ğim  *  ni *  çin  a *  man    | 
c2B2 B2A2 c2d2 e6d2 e2d2 c2d2 c2d2 c2B2 (3c2B2A2 A8 B2d2  | 
w:  *  *  *  *  Se *  ni  *  sev *  *  *  *  *  *  *  dim   | 
c2B2 B2A2 e2d2 d2c4B2 B2A2 B2c2 B2d2 c2B2 (3c2B2A2 A8 B2c2  | 
w:  *  *  *  *  bu *  dur  *  *  su *  *  *  *  *  *  *  çum    | 
A8 G4 A8 e2d2 c2d2 c2d2 e2f2 e2d2 c2d2 c2d2 e2d2  | \
w:  *  Tur ra lan *  *  *  *  *  *  *  mış   | 
d8 G4 d6c2 d6c2 d4 e2f2 e2d2 d2c2 B2A2 B2d2  | 
w:  *  sır ma  *  sa *  çın  a *  man    | 
c2B2 B2A2 c2d2 e6d2 e2d2 c2d2 c2d2 c2B2 (3c2B2A2 A8 B2d2  | 
w:  *  *  *  *  Çö *  zen  *  ben *  *  *  *  *  *  *  den   | 
c2B2 {c}B2A2 e2d2 d2c4B2 B3A B2c2 B2d2 c2B2 (3c2B2A2 A8 B2c2  | 
w:  *  *  *  *  *  be *  ter  *  *  ol *  *  *  *  *  *  *  sun    | 
A8 G4 A8 e2d2 c2d2 c2d2 e2f2 e2d2 c2d2 c2d2 e2d2  | \
w:  *  Ye ter  ol *  *  *  *  *  *  *  sun   | 
d8 G4 d6c2 d6c2 d4 e2f2 e2d2 d2c2 B2A2 B2d2  | 
w:  *  ye ter  *  ol *  sun  a *  man    | 
c2B2 B2A2 c2d2 e6d2 e2d2 c2d2 c2d2 c2B2 (3c2B2A2 A8 B2d2  | 
w:  *  *  *  *  Çok  *  ağ *  lat *  *  *  *  *  *  *  tın   | 
c2B2 {c}B2A2 e2d2 d2c4B2 B3A B2c2 B2d2 c2B2 (3c2B2A2 A8 |
w:  *  *  *  *  *  ye *  ter  *  *  ol *  *  *  *  *  *  *  sun    | 


